X:1
T:Title
%%score { ( 1 3 ) | ( 2 4 ) }
L:1/8
M:4/4
K:G
V:1 treble nm="Grand Piano"
V:3 treble 
V:2 bass 
V:4 bass 
V:1
 z4 z2[Q:1/4=100] DD | GFGA B2 Bc | dded B2 GA | BBBB dBAG | [DFA]6 [CD][CD] | %5
 [B,DG][A,DF][G,DG]A B2 Bc | dded B2 G[GA] | [GB][GB][Gd][Fc] [DGB][B,DG][CDA][CDA] | %8
[M:3/4] [B,DG]6 |[M:1/4] Bc |[M:4/4] d6 z2 | [Bd]4 z4 | z2 DD D[Ac] (3[FA]Bc | %13
 [GB]-[DG-B-][DG-B-][DG-B-] [DGB]2 Bc | d6 z2 | [Ge]6 z2 | d6 z2 |[M:3/4] G6 |] %18
V:2
 z4 z2 [G,B,][G,B,] | [G,B,D][G,A,D][G,B,D][K:treble][G,CD] [G,DG]2 [G,DG][G,A,G] | %2
 [G,B,G][G,B,G][G,CG][G,B,G] [G,DG]2 [G,B,][G,CG] | %3
 [G,DG][G,DG][G,DG][G,DG] [B,DG][G,DG][K:bass][F,D][E,^CE] | D,6 D,D, | %5
 G,,G,,B,,[D,F,D][K:treble] [G,D]2 [G,D][G,A,D] | %6
 [G,B,G][G,B,G][G,CG][G,B,G] [G,DG]2[K:bass] [E,^C][E,C] | [D,D][D,D][D,B,][D,A,] D,D,D,D, | %8
[M:3/4] G,,6 |[M:1/4][K:treble] GA |[M:4/4] B6 z2 | [D,D]D,D,D, D,2[K:treble] FG | %12
 A6[K:bass] D[K:treble]D, | G,G,G,G, G,2 GA | B6[K:bass] z2 | [C,C]C,C,C, C,2[K:treble] GG | %16
 F6[K:bass] z2 |[M:3/4] z B, CC B,2 |] %18
V:3
 x8 | x8 | x8 | x8 | x8 | x8 | x8 | x8 |[M:3/4] x6 |[M:1/4] x2 |[M:4/4] z2 DD DBed | %11
 z DDD [DAc]2 AB | c6 z D | .D2 z2 z4 | z2 DD D[DGB][CGc][Gd] | z CCC C2 ce | %16
 z2 A,A, A,[Fc][DFB][CFA] |[M:3/4] B,D EE D2 |] %18
V:4
 x8 | x3[K:treble] x5 | x8 | x6[K:bass] x2 | x8 | x4[K:treble] x4 | x6[K:bass] x2 | x8 | %8
[M:3/4] x6 |[M:1/4][K:treble] x2 |[M:4/4] z2 G,G, G,[G,DG][G,DG][G,B,G] | x6[K:treble] x2 | %12
 z2[K:bass] D,D, D,[D,D] (3D,[K:treble]GA | x8 | z2[K:bass] G,G, G,=F,E,[D,B,] | x6[K:treble] x2 | %16
 z2[K:bass] D,D, D,[D,A,]D,D, |[M:3/4] G,,6 |] %18

